!!!COM: Louise Reichardt
!!!CNT: Deutsch
!!!TXO: Deutsch
!!!OTL: Poesie von Tieck
!!!LYR: Tieck
!!!OPR: 
!!!OPS: No opus information available
!!!ONM: No. 26
!!!ENC: Ben Fuhrman
!!!YOR: Louise Reichardt: Songs
!!!YOR: New York, Da Capo Press, 1981
!!!ODT: 1800 - 1826
!!NB: Only vocal melody encoded.
!!NB: First instance of melodic material only encoded.
!!created: 2/18/10 5:00PM
!!proofed and posted: 2/18/10 5:00PM
**kern	**silbe
*clef G2	*
*k[f#]	*
*M6/8	*
*MM[Sahr sanft]	*
=1	=1
{8.b	{Ru-
16cc	-he
8b	Su2s-
8.a	-lieb-
16g	-chen
8a	im
=2	=2
4.a	Schat-
4g	-ten
8g	der
=3	=3
4cc	gru2-
8cc	-nen
8.b	da2m-
16a	-mern-
8b	-den
=4	=4
[4.a	Nacht,
8a]}	|}
8r	.
{8d	{Es
=5	=5
8a	sa2u-
8a	-selt
8b	das
8cc	Gras
8a	auf
8f#	den
=6	=6
4.g	Mat-
8d}	-ten}
8r	.
{8g	{es
=7	=7
8ee	fa2ch-
8ee	-elt
8ee	und
8gg	ku2hlt
8ff#	dich
8ee	der
=8	=8
4.dd	Schat-
4cc	ten
8cc	und
=9	=9
4b	treu-
8b	-e
8aM	Lie-
8g	|
8a	-be
=10	=10
4.g}	wacht.}
4r	.
8r	.
=11	=11
{[4.b	{Schla
8b]	|
8cc	-fe
8a	schlaf
=12	=12
[4.dd	ein
4dd]	|
8cc	|
=13	=13
4b	lei-
8b	-ser
ddq	rau-
8cc	|
16bm	-schet
16a	|
16gM	der
16f#	|
=14	=14
(4dd	Hayn,
8dd#)	|
8ee	|
8cc	|
bq	-wig
8a	|
=15	=15
4.g	bin
4.aT	ich
=16	=16
4.g}	dein.}
4r	.
8r	.
=17	=17
{8.b	{Schweigt
16cc	ihr
8b	sers-
8.a	-teck-
16g	-ten
8a	Ge-
=18	=18
4.a	-sa2n-
4g	-ge
8g	und
=19	=19
8.cc	sto2rt
16cc	nicht
8cc	die
8.b	su2s-
16a	-se-
8b	-ste
=20	=20
[4.a	Ruh.
8a]}	|}
8r	.
{8d	{Es
=21	=21
8a	laus-
8a	-chet
8b	der
8cc	Vo2-
8a	-gel
8f#	Ge-
=22	=22
4.g	-dra2n-
8d}	-ge,}
8r	.
{8g	{es
=23	=23
8ee	ru-
8ee	-hen
8ee	die
8gg	lau-
8ff	-ten
8ee	Ge-
=24	=24
4.dd	-sa2n-
4cc	-ge,
8cc	schliess
=25	=25
8.b	Lieb-
16b	-chen
8b	dein
8aM	Au-
8g	|
8a	-ge
=26	=26
4.g}	zu.}
4r	.
8r	.
=27	=27
{[4.b	Schla-
8b]	|
8cc	-fe
8a	schlaf
=28	=28
[4.dd	ein
4dd]	|
8cc	|
=29	=29
4b	in
8b	dem
ddq	da2m-
8cc	|
16bm	-mern-
16a	|
16gM	-den
16f#	|
=30	=30
(4dd	Schein,
8dd#)	|
8ee	ich
ddnq	will
8cc	|
bq	dein
8a	|
=31	=31
4.g	Wa2ch-
4.aT	-ter
=32	=32
4g}	seyn.}
8r	.
8r	.
{8dd	{Mur-
8cc	-melt
=33	=33
4b	fort
8b	ihr
8b	Me-
8cc	|
8a	-lo-
=34	=34
4a	-die-
8g	-en
4a	rau-
8a	-sche
=35	=35
4b	nur
8g	du
4cc	stil-
8b	-ler
=36	=36
(4b	Bach
8a)}	|}
8r	.
{8a	{scho2-
8dd	-ne
=37	=37
8dd	Lie-
8cc#	|
8ee	-bes-
4ee	-phan
8g	-ta-
=38	=38
4g	-sie-
8f#	-en
8.a	spre-
16ff#	|
16ee	-chen
16dd	|
=39	=39
8dd	in
8cc#	|
8cc#	den
16cc#	Me-
16dd	|
16ee	|
16ff#	|
16gg	|
16g	-lo-
=40	=40
4g	-die-
8f#}	-en}
8r	.
{8dd	{zar-
8dd	-te
=41	=41
!! Changed the following note to an eighth, not a dotted eighth in order to correct the metric problems in the score. -Fuhrman
8dd	Tra2u-
16b	|
16g	-me
16a	|
16b	|
4d	schwim-
f#q	-men
8e	|
=42	=42
4d}	nach.}
8r	.
4r	.
8r	.
=43	=43
{4cc	{durch
8cc	den
8cc	flu2s-
8cc	-tern-
8a	-den
=44	=44
[4.dd	Hayn
8dd]	|
8ee	schwa2r-
8dd	-men
=45	=45
ddq	gold-
4cc	|
8cc	-ne
(8cc	Bie-
8b)	|
8a	-ne-
=46	=46
(4dd	-lein
8dd#)	und
8ee	sum-
dd#q	-len
8cc	|
bq	zum
8a	|
=47	=47
4.g	Schlum-
bq	-mer
4a	|
8g	dich
=48	=48
4g}	ein.}
8r	.
4r	.
8r	.
==	==
*-	*-
